dhis-2/dhis-support/dhis-support-system/src/main/resources/SVGs/pills_3_positive.svg

<?xml version="1.0" encoding="UTF-8" standalone="no"?>
<!-- Created with Inkscape (http://www.inkscape.org/) -->
<svg id="svg8" xmlns:rdf="http://www.w3.org/1999/02/22-rdf-syntax-ns#" xmlns="http://www.w3.org/2000/svg" xmlns:osb="http://www.openswatchbook.org/uri/2009/osb" height="48" width="48" version="1.1" xmlns:cc="http://creativecommons.org/ns#" viewBox="0 0 12.7 12.7" xmlns:dc="http://purl.org/dc/elements/1.1/">
 <title id="title4753">UIO-icon</title>
 <metadata id="metadata5">
  <rdf:RDF>
   <cc:Work rdf:about="">
    <dc:format>image/svg+xml</dc:format>
    <dc:type rdf:resource="http://purl.org/dc/dcmitype/StillImage"/>
    <dc:title>UIO-icon</dc:title>
    <dc:creator>
     <cc:Agent>
      <dc:title>Joaquín Urbano</dc:title>
     </cc:Agent>
    </dc:creator>
    <dc:rights>
     <cc:Agent>
      <dc:title>GPL</dc:title>
     </cc:Agent>
    </dc:rights>
   </cc:Work>
  </rdf:RDF>
 </metadata>
 <g id="layer1" transform="translate(0,-284.3)" fill="#333">
  <path id="path878" d="m24.531 4.043c-0.284 0.005-0.443 0.0925-0.531 0.2285-0.11712 0.18136-0.10702 0.44747-0.097656 0.71484l0.5957 17.027c0.017548 0.50128 0.17332 0.95839 0.99805 0.82812 4.561-0.86297 7.8939-4.9453 7.7305-9.6816-0.17151-4.7256-3.7705-8.5492-8.3672-9.0938-0.124-0.0178-0.233-0.0247-0.328-0.023zm-2.3203 0.099609c-0.082706-0.00089834-0.17408 0.0053386-0.27539 0.021484-2.8447 0.54405-5.2086 2.34-6.543 4.7656-0.80065 1.4553-1.2311 3.1364-1.1699 4.9102 0.17204 4.7399 3.7916 8.5713 8.4082 9.0977 0.94741 0.13106 0.93478-0.38691 0.91797-0.86719l-0.6-17.11c-0.014-0.416-0.159-0.8121-0.738-0.8184zm-8.8457 20.832c-0.56551 0.006954-1.1371 0.06396-1.707 0.17578-0.94268 0.16163-0.77261 0.65277-0.61133 1.1055l5.7461 16.127c0.15962 0.44803 0.47355 0.82138 1.207 0.45312 2.5469-1.379 4.2586-3.8059 4.7969-6.5215 0.32298-1.6293 0.22369-3.363-0.37109-5.0352-1.3979-3.9076-5.1019-6.3534-9.0605-6.3047zm21.357 0.03125c-1.6603-0.050132-3.353 0.33317-4.9043 1.1953-4.1416 2.3115-5.905 7.279-4.2715 11.629 0.31472 0.90317 0.77147 0.65554 1.1914 0.42188l14.959-8.3242c0.41561-0.23125 0.73211-0.60284 0.24805-1.2656-1.7797-2.285-4.4555-3.5727-7.2227-3.6562zm-25.284 0.955c-0.1345 0.009-0.2918 0.055-0.4785 0.148-4.0864 2.202-6.0297 7.1-4.4414 11.565 1.5927 4.452 6.1784 7.01 10.724 6.138 0.497-0.081 0.701-0.246 0.758-0.455 0.057-0.208-0.033-0.46-0.123-0.712l-5.7168-16.047c-0.126-0.355-0.319-0.663-0.7225-0.637zm33.352 4.5879c-0.2148-0.021677-0.44786 0.1082-0.68164 0.23828l-14.887 8.283c-0.43831 0.24388-0.77472 0.59067-0.2832 1.2656 2.8452 3.6678 7.9962 4.7768 12.139 2.4746 4.1292-2.3045 5.8954-7.2494 4.2871-11.59-0.16205-0.47669-0.35942-0.6502-0.57422-0.67188z" fill-rule="evenodd" transform="matrix(.26458 0 0 .26458 0 284.3)"/>
 </g>
</svg>

<svg width="48" height="48" viewBox="0 0 48 48" fill="none" xmlns="http://www.w3.org/2000/svg">
<path fill-rule="evenodd" clip-rule="evenodd" d="M24.5307 4.04316C24.2467 4.04816 24.0877 4.13566 23.9997 4.27166C23.8825 4.45301 23.8926 4.71912 23.902 4.98649L24.4977 22.0133C24.5152 22.5145 24.671 22.9717 25.4957 22.8414C30.0567 21.9784 33.3895 17.8961 33.2261 13.1599C33.0546 8.43436 29.4557 4.61081 24.859 4.06622C24.735 4.04842 24.626 4.04152 24.531 4.04322L24.5307 4.04316ZM22.2104 4.14277C22.1277 4.14187 22.0363 4.14811 21.935 4.16425C19.0903 4.70829 16.7265 6.50422 15.3921 8.92979C14.5914 10.3851 14.161 12.0662 14.2222 13.8399C14.3942 18.5798 18.0137 22.4111 22.6303 22.9375C23.5777 23.0686 23.5651 22.5506 23.5482 22.0703L22.9483 4.96055C22.9343 4.54456 22.7893 4.14846 22.2103 4.14216L22.2104 4.14277ZM13.3648 24.9745C12.7993 24.9815 12.2277 25.0385 11.6578 25.1503C10.7151 25.3119 10.8852 25.803 11.0465 26.2558L16.7925 42.3826C16.9521 42.8306 17.2661 43.2039 17.9995 42.8357C20.5464 41.4567 22.2581 39.0298 22.7963 36.3143C23.1193 34.685 23.02 32.9513 22.4253 31.2791C21.0274 27.3716 17.3234 24.9258 13.3649 24.9745H13.3648ZM34.7215 25.0058C33.0612 24.9556 31.3686 25.3389 29.8173 26.201C25.6757 28.5125 23.9124 33.4799 25.5458 37.8299C25.8606 38.7331 26.3173 38.4854 26.7372 38.2518L41.696 29.9277C42.1116 29.6964 42.4281 29.3248 41.9441 28.6621C40.1644 26.3771 37.4886 25.0894 34.7215 25.0059V25.0058ZM9.43784 25.9607C9.30334 25.9697 9.14605 26.0157 8.95935 26.1087C4.873 28.3107 2.92972 33.2087 4.518 37.6736C6.11068 42.1255 10.6963 44.6835 15.2419 43.8115C15.7389 43.7305 15.9429 43.5655 15.9999 43.3565C16.0569 43.1485 15.9669 42.8965 15.8769 42.6445L10.1601 26.5977C10.0341 26.2427 9.84114 25.9347 9.43764 25.9607H9.43784ZM42.7894 30.5486C42.5746 30.5269 42.3416 30.6568 42.1078 30.7869L27.221 39.0698C26.7827 39.3136 26.4463 39.6604 26.9378 40.3353C29.7829 44.0031 34.9339 45.1121 39.0766 42.8099C43.2058 40.5054 44.972 35.5606 43.3637 31.2201C43.2016 30.7434 43.0043 30.5699 42.7895 30.5482L42.7894 30.5486Z" fill="#333333"/>
</svg>
